public/icons/dark/symfony.darkmode.svg

<svg width="192" height="192" viewBox="0 0 192 192" fill="none" xmlns="http://www.w3.org/2000/svg">
<path d="M96 173.5C138.802 173.5 173.5 138.802 173.5 96C173.5 53.1979 138.802 18.5 96 18.5C53.1979 18.5 18.5 53.1979 18.5 96C18.5 138.802 53.1979 173.5 96 173.5Z" fill="white"/>
<path d="M129.73 47.1398C121.87 47.4098 115.01 51.7498 109.9 57.7398C104.24 64.3098 100.48 72.1098 97.7697 80.0598C92.9197 76.0798 89.1797 70.9398 81.3997 68.6898C75.3897 66.9598 69.0697 67.6798 63.2597 71.9998C60.5097 74.0598 58.6097 77.1598 57.7097 80.0798C55.3797 87.6698 60.1597 94.4298 62.3397 96.8498L67.0897 101.95C68.0697 102.95 70.4297 105.56 69.2797 109.29C68.0297 113.35 63.1297 115.98 58.1097 114.43C55.8697 113.75 52.6397 112.07 53.3597 109.72C53.6597 108.76 54.3497 108.04 54.7197 107.2C55.0597 106.48 55.2197 105.95 55.3197 105.63C56.2397 102.63 54.9797 98.7298 51.7697 97.7398C48.7697 96.8198 45.7097 97.5498 44.5197 101.41C43.1697 105.79 45.2697 113.74 56.4997 117.2C69.6597 121.24 80.7797 114.08 82.3597 104.74C83.3497 98.8898 80.7097 94.5398 75.8697 88.9498L71.9297 84.5898C69.5397 82.1998 68.7197 78.1298 71.1897 75.0098C73.2797 72.3698 76.2497 71.2498 81.1097 72.5698C88.2097 74.4998 91.3797 79.4298 96.6597 83.3998C94.4797 90.5598 93.0497 97.7398 91.7597 104.18L90.9697 108.98C87.1897 128.79 84.3097 139.67 76.8197 145.92C75.3097 146.99 73.1497 148.6 69.8997 148.71C68.1897 148.76 67.6397 147.59 67.6197 147.08C67.5797 145.88 68.5897 145.33 69.2597 144.8C70.2597 144.25 71.7797 143.35 71.6697 140.45C71.5597 137.02 68.7197 134.05 64.6097 134.18C61.5297 134.28 56.8497 137.18 57.0197 142.48C57.1997 147.95 62.2997 152.05 69.9897 151.79C74.0997 151.65 83.2797 149.98 92.3297 139.22C102.86 126.89 105.81 112.76 108.02 102.41L110.49 88.7498C111.86 88.9098 113.33 89.0198 114.93 89.0598C128.05 89.3398 134.61 82.5398 134.7 77.5998C134.76 74.6098 132.74 71.6698 129.9 71.7298C127.87 71.7898 125.32 73.1398 124.7 75.9498C124.1 78.7098 128.87 81.1898 125.14 83.6098C122.49 85.3198 117.74 86.5298 111.05 85.5498L112.27 78.8298C114.75 66.0798 117.81 50.3998 129.43 50.0198C130.28 49.9798 133.37 50.0598 133.45 52.1098C133.47 52.7898 133.3 52.9698 132.5 54.5398C131.68 55.7598 131.38 56.7998 131.42 57.9998C131.53 61.2498 134.01 63.3898 137.59 63.2698C142.38 63.1098 143.76 58.4498 143.68 56.0498C143.49 50.4198 137.55 46.8598 129.69 47.1198L129.73 47.1398Z" fill="#1A171B"/>
</svg>

<?xml version="1.0" encoding="UTF-8"?><svg id="icons" xmlns="http://www.w3.org/2000/svg" viewBox="0 0 192 192"><defs><style>.cls-1{fill:#fff;}.cls-2{fill:#1a171b;}</style></defs><circle class="cls-2" cx="96" cy="96" r="77.5"/><path class="cls-1" d="M129.73,47.14c-7.86,.27-14.72,4.61-19.83,10.6-5.66,6.57-9.42,14.37-12.13,22.32-4.85-3.98-8.59-9.12-16.37-11.37-6.01-1.73-12.33-1.01-18.14,3.31-2.75,2.06-4.65,5.16-5.55,8.08-2.33,7.59,2.45,14.35,4.63,16.77l4.75,5.1c.98,1,3.34,3.61,2.19,7.34-1.25,4.06-6.15,6.69-11.17,5.14-2.24-.68-5.47-2.36-4.75-4.71,.3-.96,.99-1.68,1.36-2.52,.34-.72,.5-1.25,.6-1.57,.92-3-.34-6.9-3.55-7.89-3-.92-6.06-.19-7.25,3.67-1.35,4.38,.75,12.33,11.98,15.79,13.16,4.04,24.28-3.12,25.86-12.46,.99-5.85-1.65-10.2-6.49-15.79l-3.94-4.36c-2.39-2.39-3.21-6.46-.74-9.58,2.09-2.64,5.06-3.76,9.92-2.44,7.1,1.93,10.27,6.86,15.55,10.83-2.18,7.16-3.61,14.34-4.9,20.78l-.79,4.8c-3.78,19.81-6.66,30.69-14.15,36.94-1.51,1.07-3.67,2.68-6.92,2.79-1.71,.05-2.26-1.12-2.28-1.63-.04-1.2,.97-1.75,1.64-2.28,1-.55,2.52-1.45,2.41-4.35-.11-3.43-2.95-6.4-7.06-6.27-3.08,.1-7.76,3-7.59,8.3,.18,5.47,5.28,9.57,12.97,9.31,4.11-.14,13.29-1.81,22.34-12.57,10.53-12.33,13.48-26.46,15.69-36.81l2.47-13.66c1.37,.16,2.84,.27,4.44,.31,13.12,.28,19.68-6.52,19.77-11.46,.06-2.99-1.96-5.93-4.8-5.87-2.03,.06-4.58,1.41-5.2,4.22-.6,2.76,4.17,5.24,.44,7.66-2.65,1.71-7.4,2.92-14.09,1.94l1.22-6.72c2.48-12.75,5.54-28.43,17.16-28.81,.85-.04,3.94,.04,4.02,2.09,.02,.68-.15,.86-.95,2.43-.82,1.22-1.12,2.26-1.08,3.46,.11,3.25,2.59,5.39,6.17,5.27,4.79-.16,6.17-4.82,6.09-7.22-.19-5.63-6.13-9.19-13.99-8.93h0Z"/></svg>
